X:251
T:Where are you going - recalled by Bussell
%%VWML:SBG-1-2-557-0
F:http://www.vwml.org/record/SBG/1/2/557
Z:Original Sibelius transcriptions by M. & S. Graebe
M:4/4
I:linebreak $
K:C
V:1 treble nm="P1"
V:1
 c2 c d | e2 e2 dc de | c4 | e2 e f |$ g2 g2 f e f g | e4 | gf ga | e4 | dc de | c4 | %10
w: Where are you|going _ my _ pretty _|maid|Going _ a|milking _ Sir _ she _|said|Sir _ she _|said|Sir _ she _|said|

